X: 21098
T: Kamikaze Honkers, The
R: reel
M: 4/4
K: Cmajor
eAA(c BA)Bd|eAA(e fe)df|eAA(c BA)Bc|dBGB d2(df)|
eAA(c BA)Bd|eAA(e fe)df|eAA(c BA)Bc|dBGB A2 (Ac)||
EAAc F2 (AF)|G3 ABcd2|EAAc F2 (Bc)|
dBGB d2dD|EAAc F2 (AF)|G3 ABcd2|EAAc F2 (Bc)|dBGB A2 (Ac)||
[A4a] [A2a] [A2a]|[A2a] [A2a] (gfe2)|[a4d] [a2d] [a2d]|[a2d] [a2d] cBA|[A4a] [A2a] [A2a]|[A2a] [A2a] (gfe2)|a3g ecA(c|dB)GB A A2B||
cBAG F2 AF|G2 ABc(d2 B)|cBAG F2 Bc|dBGB d2 dB|cBAG F2 AF|
G2 ABc d z2|a3g ecA(c|dB)GB A2 z2

